www/images/pieces/merida/wR.svg

<svg xmlns="http://www.w3.org/2000/svg" width="177.17" height="177.17" shape-rendering="geometricPrecision" image-rendering="optimizeQuality" fill-rule="evenodd" clip-rule="evenodd" viewBox="0 0 50 50"><defs><linearGradient id="0" x1="21.376" x2="77.64" gradientUnits="userSpaceOnUse"><stop stop-color="#fff"/><stop offset="1" stop-color="#fff" stop-opacity="0"/></linearGradient></defs><path fill="#1f1a17" d="m28.408 9.22h4.216v-3.395h6.796v9.295l-5.5 4.243v11.857l4.22 4.221v5.08h3.789v5.929h-33.859v-5.929h3.794v-5.08l4.246-4.221v-11.857l-5.508-4.243v-9.295h6.774v3.395h4.242v-3.395h6.79z"/><path fill="url(#0)" d="m33.07 17.678l3.15-2.557h-22.42l3.175 2.557h16.1m7.197 24.528h-30.514v2.557h30.514v-2.557m-3.844-5.05h-22.826v3.37h22.826v-3.37m-4.216-17.788h-14.393v11.862h14.393v-11.862m5.503-5.927v-5.927h-3.395v3.395h-7.645v-3.395h-3.344v3.395h-7.62v-3.395h-3.395v5.927h25.4m-1.913 22l-2.548-2.532h-16.451l-2.599 2.532h21.598"/></svg>

<svg xmlns="http://www.w3.org/2000/svg" width="177.17" height="177.17" shape-rendering="geometricPrecision" image-rendering="optimizeQuality" fill-rule="evenodd" clip-rule="evenodd" viewBox="0 0 50 50"><defs><linearGradient id="a" x1="21.376" x2="77.64" gradientUnits="userSpaceOnUse"><stop stop-color="#fff"/><stop offset="1" stop-color="#fff" stop-opacity="0"/></linearGradient></defs><path fill="#1f1a17" d="M28.408 9.22h4.216V5.825h6.796v9.295l-5.5 4.243V31.22l4.22 4.221v5.08h3.789v5.929H8.07v-5.929h3.794v-5.08l4.246-4.221V19.363l-5.508-4.243V5.825h6.774V9.22h4.242V5.825h6.79z"/><path fill="url(#a)" d="M33.07 17.678l3.15-2.557H13.8l3.175 2.557h16.1m7.197 24.528H9.758v2.557h30.514v-2.557m-3.844-5.05H13.602v3.37h22.826v-3.37m-4.216-17.788H17.819V31.23h14.393V19.368m5.503-5.927V7.514H34.32v3.395h-7.645V7.514h-3.344v3.395h-7.62V7.514h-3.395v5.927h25.4m-1.913 22l-2.548-2.532H16.804l-2.599 2.532h21.598"/></svg>
